packages/kaspersky-hexa-ui-icons/src/iconsSVGs/16x12/FlagTn.svg

<svg width="16" height="12" viewBox="0 0 16 12" fill="none" xmlns="http://www.w3.org/2000/svg">
<g clip-path="url(#clip0_41818_3834)">
<rect width="16" height="12" rx="2" fill="white"/>
<mask id="mask0_41818_3834" style="mask-type:luminance" maskUnits="userSpaceOnUse" x="0" y="0" width="16" height="12">
<rect width="16" height="12" rx="2" fill="white"/>
</mask>
<g mask="url(#mask0_41818_3834)">
<rect width="16" height="12" fill="#E92434"/>
<path d="M7.99963 2.40039C9.98778 2.40039 11.6002 4.01177 11.6002 6C11.6002 7.98822 9.98778 9.59961 7.99963 9.59961C6.01167 9.5994 4.40002 7.9881 4.40002 6C4.40002 4.0119 6.01167 2.4006 7.99963 2.40039ZM7.99963 3.2002C6.4535 3.20043 5.19983 4.45375 5.19983 6C5.19983 7.54625 6.4535 8.79957 7.99963 8.7998C8.36823 8.7998 8.71924 8.72611 9.04163 8.59668C9.02777 8.59698 9.01355 8.59961 8.99963 8.59961C7.78483 8.59936 6.80042 7.43579 6.80042 6C6.80042 4.56421 7.78483 3.40064 8.99963 3.40039C9.01355 3.40039 9.02777 3.40204 9.04163 3.40234C8.71933 3.273 8.3681 3.2002 7.99963 3.2002ZM8.76624 5.70703L7.65295 6.01562L8.72815 6.43945L8.67737 7.59277L9.41272 6.70215L10.4948 7.10645L9.87366 6.13184L10.5924 5.22754L9.47424 5.5166L8.83655 4.55371L8.76624 5.70703Z" fill="white"/>
</g>
</g>
<defs>
<clipPath id="clip0_41818_3834">
<rect width="16" height="12" fill="white"/>
</clipPath>
</defs>
</svg>

<svg xmlns="http://www.w3.org/2000/svg" width="16" height="12" fill="none" viewBox="0 0 16 12"><g clip-path="url(#a)"><rect width="16" height="12" fill="#fff" rx="2"/><mask id="b" width="16" height="12" x="0" y="0" maskUnits="userSpaceOnUse" style="mask-type:luminance"><rect width="16" height="12" fill="#fff" rx="2"/></mask><g mask="url(#b)"><path fill="#e92434" d="M0 0h16v12H0z"/><path fill="#fff" d="M7.9996 2.4004c1.9882 0 3.6006 1.6114 3.6006 3.5996S9.9878 9.5996 7.9996 9.5996C6.0116 9.5994 4.4 7.9881 4.4 6s1.6117-3.5994 3.5996-3.5996m0 .7998C6.4535 3.2004 5.1998 4.4538 5.1998 6s1.2537 2.7996 2.7998 2.7998c.3686 0 .7196-.0737 1.042-.2031-.0138.0003-.028.003-.042.003C7.7848 8.5993 6.8004 7.4356 6.8004 6s.9844-2.5994 2.1992-2.5996c.014 0 .0282.0016.042.002a2.79 2.79 0 0 0-1.042-.2022m.7666 2.5068-1.1132.3086 1.0751.4238-.0507 1.1534.7353-.8907 1.0821.4044-.6211-.9747.7187-.9043-1.1182.2891-.6376-.9629z"/></g></g><defs><clipPath id="a"><path fill="#fff" d="M0 0h16v12H0z"/></clipPath></defs></svg>
